X:1
T:Title
%%score { ( 1 3 ) | ( 2 4 5 ) }
L:1/8
M:4/4
K:E
V:1 treble nm="Grand Piano"
V:3 treble 
V:2 bass 
V:4 bass 
V:5 bass 
V:1
 z4 z2[Q:1/4=100] E2 | [Ec]3 [=DB] [CA][CE][^B,^D][CE] | [=DF]6 z2 | G3 G F2 E2 | %4
[M:3/4] c6[K:bass] |[M:1/4] E2 |[M:4/4][K:treble] [Ec]3 [=DB] [CA][CE][^B,^D][CE] | [=DF]6 z2 | %8
 G3 E c3 B |[M:3/4] A2- [FA-][FA-] [EA]2 |[M:1/4] B2 |[M:4/4] [DB]3 [D^A] [Dc][DB]D[Dc] | %12
 [EB]6 [EB]2 | [Ad]3 [Ac] [GB]3 [FA] |[M:3/4] [EG]6 |[M:1/4] [EB]2 | %16
[M:4/4] [DB]3 [D^A] [Dc][DB]D[Dc] | [EB]6 [B,EG]2 | [CEG]3 [CEF] [DA]3[K:bass] [A,B,D] | %19
[M:3/4] [E,G,B,E]6 |[M:1/4][K:treble] E2 |[M:4/4] [Ec]3 [=DB] [CA][CE][^B,^D][CE] | [=DF]6 z2 | %23
 G3 G F2 E2 |[M:3/4] c6[K:bass] |[M:1/4] E2 |[M:4/4][K:treble] [Ec]3 [=DB] [CA][CE][^B,^D][CE] | %27
 [=DF]6 z2 | G3 E c3 B |[M:7/4] A2- [FA-][FA-] [EA]2 z2 z2 z4 |] %30
V:2
 z4 z2 E,2 | [A,,A,]3 [A,,E,] [A,,E,][A,,A,][A,,A,][A,,A,] | [=D,A,]D,D,D, D,2 [D,B,=D]2 | %3
 [E,B,=D]3 [E,B,D] [E,A,D]2 [E,G,D]2 |[M:3/4] E6 |[M:1/4] E,2 | %6
[M:4/4] [A,,A,]3 [A,,E,] [A,,E,][A,,A,][A,,A,][A,,A,] | [=D,A,]D,D,D, D,2 [D,B,=D]2 | %8
 [E,B,=D]3 [E,B,D] [E,A,E]3 [E,DE] |[M:3/4] z2 =DD C2 |[M:1/4] [E,G,E]2 | %11
[M:4/4] [B,,F,]3 [B,,F,] [B,,F,][B,,F,][B,,A,][B,,A,] | [E,G,]6 [E,G,]2 | %13
 [B,,F,]3 [B,,F,] [B,,B,]3 [D,B,] |[M:3/4] [E,B,]6 |[M:1/4] [E,G,]2 | %16
[M:4/4] [B,,F,]3 [B,,F,] [B,,F,][B,,F,][B,,A,][B,,A,] | [E,G,]6 E,2 | A,,3 A,, [B,,F,]3 B,, | %19
[M:3/4] E,,6 |[M:1/4] E,2 |[M:4/4] [A,,A,]3 [A,,E,] [A,,E,][A,,A,][A,,A,][A,,A,] | %22
 [=D,A,]D,D,D, D,2 [D,B,=D]2 | [E,B,=D]3 [E,B,D] [E,A,D]2 [E,G,D]2 |[M:3/4] .A,2 z2 z2 | %25
[M:1/4] E,2 |[M:4/4] [A,,A,]3 [A,,E,] [A,,E,][A,,A,][A,,A,][A,,A,] | [=D,A,]D,D,D, D,2 [D,B,=D]2 | %28
 [E,B,=D]3 [E,B,D] [E,A,E]3 [E,DE] |[M:7/4] z2[K:treble] =DD C2 z2 z2 z4 |] %30
V:3
 x8 | x8 | z A,A,A, A,2 F2 | x8 |[M:3/4] z[K:bass] A, A,A, A,2 |[M:1/4] x2 |[M:4/4][K:treble] x8 | %7
 z A,A,A, A,2 F2 | x8 |[M:3/4] [CE] E3 z2 |[M:1/4] x2 |[M:4/4] x8 | x8 | x8 |[M:3/4] x6 | %15
[M:1/4] x2 |[M:4/4] x8 | x8 | x7[K:bass] x |[M:3/4] x6 |[M:1/4][K:treble] x2 |[M:4/4] x8 | %22
 z A,A,A, A,2 F2 | x8 |[M:3/4] z[K:bass] A, A,A, A,2 |[M:1/4] x2 |[M:4/4][K:treble] x8 | %27
 z A,A,A, A,2 F2 | x8 |[M:7/4] [CE] E3 z2 z2 z2 z4 |] %30
V:4
 x8 | x8 | x8 | x8 |[M:3/4] A,E, C,E, A,,2 |[M:1/4] x2 |[M:4/4] x8 | x8 | x8 |[M:3/4] z C3 z2 | %10
[M:1/4] x2 |[M:4/4] x8 | x8 | x8 |[M:3/4] x6 |[M:1/4] x2 |[M:4/4] x8 | x8 | x8 |[M:3/4] x6 | %20
[M:1/4] x2 |[M:4/4] x8 | x8 | x8 |[M:3/4] E-[E,E-] [C,E-][E,E-] [A,,E]2 |[M:1/4] x2 |[M:4/4] x8 | %27
 x8 | x8 |[M:7/4] z[K:treble] C3 z2 z2 z2 z4 |] %30
V:5
 x8 | x8 | x8 | x8 |[M:3/4] x6 |[M:1/4] x2 |[M:4/4] x8 | x8 | x8 |[M:3/4] A,,6 |[M:1/4] x2 | %11
[M:4/4] x8 | x8 | x8 |[M:3/4] x6 |[M:1/4] x2 |[M:4/4] x8 | x8 | x8 |[M:3/4] x6 |[M:1/4] x2 | %21
[M:4/4] x8 | x8 | x8 |[M:3/4] x6 |[M:1/4] x2 |[M:4/4] x8 | x8 | x8 | %29
[M:7/4] A,,6[K:treble] z2 z2 z4 |] %30

